X:1
T:Allemand. SenH.007
T:Allemand. SenH.007
T:in Hand A
C:in Hand A
L:1/8
Q:1/4=100
M:4/4
K:G
V:1 treble 
V:1
"^Allegro" d2 | gbd'd gG (gd) | ed/e/ c2 B2 z d | BG Ad/c/ BG z A | (B/^c/)(d/f/) ec d2 z d | %5
 eGce fA z f | AfGe fdGB | (e/f/)(g/B/) Af g2 z G | ce Ad/c/ BG z d | gb ea/g/ fd z a | %10
 bdgb ^cadb | f2 e2 d2 z A | Bdgb ^cad'g | fd'b^c' d'3 || a | d2 z d BdGd | g2 z g eGce | %17
 a2 z a fAdf | b2 z b gBec' | dbca BgAf | Gef^d e2 z e/d/ | ^ceAa gA dd/c/ | BdGg eGce | %23
 fd z f ge z g | af z a bG z b | ae g2 f2 z2 | d2 e/d/c/e/ dBca | Bd' ee' (fg/a/) a2 | %28
 g2 z2 z d e/d/c/e/ | dBca Bd' ee' | fg/a/ a2 g3 |] %31

